images/icon-gloeilamp.svg

<svg height="40" viewBox="0 0 76 40" width="76" xmlns="http://www.w3.org/2000/svg"><g fill="#fff" fill-rule="evenodd" transform="translate(22.042553 1)"><path d="m26.7943925 15.967097c0-5.8132635-4.9214191-10.54138442-10.858369-10.2313437-5.3120078.23253054-9.68660251 4.5731006-9.9209558 9.7662826-.07811776 2.6353462.78117762 5.1931821 2.49976839 7.1309366 1.64047301 1.8602443 2.49976841 4.4180802 2.49976841 7.1309365v.4650611c0 .4650611.312471.7751018.7811776.7751018h9.1397782c.4687066 0 .7811776-.3100407.7811776-.7751018v-.5425713c0-2.5578359.9374132-5.0381616 2.7341217-7.2859569 1.4842375-1.7827341 2.3435329-4.0305293 2.3435329-6.4333449zm-7.421745 11.9879059h-6.4770805c-.0667741-2.6101073-.9348364-5.0828405-2.470639-6.9373905-1.26870647-1.5111147-1.8696727-3.4343517-1.80289867-5.3575887.20032208-3.983848 3.33870127-7.2121386 7.14482077-7.4181997 4.3403116-.2060611 7.879335 3.3656647 7.879335 7.7616349 0 1.7858629-.6009662 3.4343517-1.6693506 4.8767795-1.6693507 2.129298-2.604187 4.6020313-2.604187 7.0747645z"/><path d="m20.9355603 32.786806h-8.8273071c-.4687066 0-.7811777.3100407-.7811777.7751018s.3124711.7751018.7811777.7751018h8.8273071c.4687066 0 .7811776-.3100407.7811776-.7751018s-.312471-.7751018-.7811776-.7751018z"/><path d="m19.3732051 35.6546827h-5.7025967c-.4687066 0-.7811776.3100407-.7811776.7751018 0 .465061.312471.7751018.7811776.7751018h5.7025967c.4687065 0 .7811776-.3100408.7811776-.7751018 0-.4650611-.3124711-.7751018-.7811776-.7751018z"/><path d="m16.4047301 4.49559042c.4687066 0 .7811776-.31004071.7811776-.77510179v-2.94538683c0-.46506108-.312471-.7751018-.7811776-.7751018s-.7811776.31004072-.7811776.7751018v2.94538683c0 .46506108.312471.77510179.7811776.77510179z"/><path d="m24.9976839 8.13856887c.2343533 0 .3905889-.07751018.5468244-.23253054l2.0310618-2.09277485c.312471-.31004072.312471-.7751018 0-1.08514252-.3124711-.31004072-.7811776-.31004072-1.0936487 0l-2.0310618 2.09277486c-.312471.31004071-.312471.77510179 0 1.08514251.1562355.15502036.3905888.23253054.5468243.23253054z"/><path d="m7.2649519 24.4157066-2.03106182 2.0927749c-.31247105.3100407-.31247105.7751018 0 1.0851425.15623552.1550203.31247104.2325305.54682433.2325305s.39058881-.0775102.54682434-.2325305l2.03106182-2.0927749c.31247105-.3100407.31247105-.7751018 0-1.0851425-.31247105-.3875509-.78117762-.3100407-1.09364867 0z"/><path d="m31.4814582 15.3470156h-2.8903572c-.4687066 0-.7811776.3100407-.7811776.7751018s.312471.7751018.7811776.7751018h2.8903572c.4687066 0 .7811776-.3100407.7811776-.7751018s-.3905888-.7751018-.7811776-.7751018z"/><path d="m4.21835917 15.3470156h-2.89035721c-.46870657 0-.78117762.3100407-.78117762.7751018s.31247105.7751018.78117762.7751018h2.89035721c.46870657 0 .78117762-.3100407.78117762-.7751018s-.31247105-.7751018-.78117762-.7751018z"/><path d="m25.5445083 24.4157066c-.3124711-.3100407-.7811776-.3100407-1.0936487 0-.312471.3100407-.312471.7751018 0 1.0851425l2.0310618 2.0927749c.1562356.1550203.3905888.2325305.5468244.2325305.2343532 0 .3905888-.0775102.5468243-.2325305.312471-.3100407.312471-.7751018 0-1.0851425z"/><path d="m7.2649519 7.90603833c.15623552.15502036.39058881.23253054.54682433.23253054.23435329 0 .39058881-.07751018.54682434-.23253054.31247105-.31004072.31247105-.7751018 0-1.08514251l-2.03106182-2.09277486c-.31247105-.31004072-.78117763-.31004072-1.09364867 0-.31247105.31004072-.31247105.7751018 0 1.08514252z"/></g></svg>

<?xml version="1.0" encoding="UTF-8"?>
<svg width="76px" height="40px" viewBox="0 0 76 40" version="1.1" xmlns="http://www.w3.org/2000/svg" xmlns:xlink="http://www.w3.org/1999/xlink">
    <!-- Generator: Sketch 45.2 (43514) - http://www.bohemiancoding.com/sketch -->
    <title>icon-gloeilamp</title>
    <desc>Created with Sketch.</desc>
    <defs></defs>
    <g id="Page-1" stroke="none" stroke-width="1" fill="none" fill-rule="evenodd">
        <g id="icon-gloeilamp" fill="#000000">
            <g transform="translate(8.000000, 1.000000)" id="shape2">
                <g transform="translate(14.042553, 0.000000)">
                    <path d="M26.7943925,15.967097 C26.7943925,10.1538335 21.8729734,5.42571258 15.9360235,5.7357533 C10.6240157,5.96828384 6.24942099,10.3088539 6.0150677,15.5020359 C5.93694994,18.1373821 6.79624532,20.695218 8.51483609,22.6329725 C10.1553091,24.4932168 11.0146045,27.0510527 11.0146045,29.763909 L11.0146045,30.2289701 C11.0146045,30.6940312 11.3270755,31.0040719 11.7957821,31.0040719 L20.9355603,31.0040719 C21.4042669,31.0040719 21.7167379,30.6940312 21.7167379,30.2289701 L21.7167379,29.6863988 C21.7167379,27.1285629 22.6541511,24.6482372 24.4508596,22.4004419 C25.9350971,20.6177078 26.7943925,18.3699126 26.7943925,15.967097 Z M20.2325004,29.4538683 L12.6550775,29.4538683 C12.5769597,26.5084815 11.5614288,23.718115 9.76472029,21.6253401 C8.28048281,19.9201162 7.57742295,17.7498312 7.65554071,15.5795461 C7.88989399,11.0839557 11.5614288,7.44097725 16.0141413,7.20844671 C21.0917958,6.97591618 25.2320372,11.0064455 25.2320372,15.967097 C25.2320372,17.9823617 24.5289774,19.842606 23.2790932,21.4703198 C21.3261491,23.8731354 20.2325004,26.6635018 20.2325004,29.4538683 Z" id="Shape" fill-rule="nonzero"></path>
                    <path d="M20.9355603,32.786806 L12.1082532,32.786806 C11.6395466,32.786806 11.3270755,33.0968467 11.3270755,33.5619078 C11.3270755,34.0269689 11.6395466,34.3370096 12.1082532,34.3370096 L20.9355603,34.3370096 C21.4042669,34.3370096 21.7167379,34.0269689 21.7167379,33.5619078 C21.7167379,33.0968467 21.4042669,32.786806 20.9355603,32.786806 Z" id="Shape" fill-rule="nonzero"></path>
                    <path d="M19.3732051,35.6546827 L13.6706084,35.6546827 C13.2019018,35.6546827 12.8894308,35.9647234 12.8894308,36.4297845 C12.8894308,36.8948455 13.2019018,37.2048863 13.6706084,37.2048863 L19.3732051,37.2048863 C19.8419116,37.2048863 20.1543827,36.8948455 20.1543827,36.4297845 C20.1543827,35.9647234 19.8419116,35.6546827 19.3732051,35.6546827 Z" id="Shape" fill-rule="nonzero"></path>
                    <path d="M16.4047301,4.49559042 C16.8734367,4.49559042 17.1859077,4.18554971 17.1859077,3.72048863 L17.1859077,0.775101797 C17.1859077,0.310040719 16.8734367,0 16.4047301,0 C15.9360235,0 15.6235525,0.310040719 15.6235525,0.775101797 L15.6235525,3.72048863 C15.6235525,4.18554971 15.9360235,4.49559042 16.4047301,4.49559042 Z" id="Shape" fill-rule="nonzero"></path>
                    <path d="M24.9976839,8.13856887 C25.2320372,8.13856887 25.3882728,8.06105869 25.5445083,7.90603833 L27.5755701,5.81326348 C27.8880411,5.50322276 27.8880411,5.03816168 27.5755701,4.72812096 C27.263099,4.41808024 26.7943925,4.41808024 26.4819214,4.72812096 L24.4508596,6.82089582 C24.1383886,7.13093653 24.1383886,7.59599761 24.4508596,7.90603833 C24.6070951,8.06105869 24.8414484,8.13856887 24.9976839,8.13856887 Z" id="Shape" fill-rule="nonzero"></path>
                    <path d="M7.2649519,24.4157066 L5.23389008,26.5084815 C4.92141903,26.8185222 4.92141903,27.2835833 5.23389008,27.593624 C5.3901256,27.7486443 5.54636112,27.8261545 5.78071441,27.8261545 C6.0150677,27.8261545 6.17130322,27.7486443 6.32753875,27.593624 L8.35860057,25.5008491 C8.67107162,25.1908084 8.67107162,24.7257473 8.35860057,24.4157066 C8.04612952,24.0281557 7.57742295,24.1056659 7.2649519,24.4157066 Z" id="Shape" fill-rule="nonzero"></path>
                    <path d="M31.4814582,15.3470156 L28.591101,15.3470156 C28.1223944,15.3470156 27.8099234,15.6570563 27.8099234,16.1221174 C27.8099234,16.5871785 28.1223944,16.8972192 28.591101,16.8972192 L31.4814582,16.8972192 C31.9501648,16.8972192 32.2626358,16.5871785 32.2626358,16.1221174 C32.2626358,15.6570563 31.872047,15.3470156 31.4814582,15.3470156 Z" id="Shape" fill-rule="nonzero"></path>
                    <path d="M4.21835917,15.3470156 L1.32800196,15.3470156 C0.859295386,15.3470156 0.546824336,15.6570563 0.546824336,16.1221174 C0.546824336,16.5871785 0.859295386,16.8972192 1.32800196,16.8972192 L4.21835917,16.8972192 C4.68706574,16.8972192 4.99953679,16.5871785 4.99953679,16.1221174 C4.99953679,15.6570563 4.68706574,15.3470156 4.21835917,15.3470156 Z" id="Shape" fill-rule="nonzero"></path>
                    <path d="M25.5445083,24.4157066 C25.2320372,24.1056659 24.7633307,24.1056659 24.4508596,24.4157066 C24.1383886,24.7257473 24.1383886,25.1908084 24.4508596,25.5008491 L26.4819214,27.593624 C26.638157,27.7486443 26.8725102,27.8261545 27.0287458,27.8261545 C27.263099,27.8261545 27.4193346,27.7486443 27.5755701,27.593624 C27.8880411,27.2835833 27.8880411,26.8185222 27.5755701,26.5084815 L25.5445083,24.4157066 Z" id="Shape" fill-rule="nonzero"></path>
                    <path d="M7.2649519,7.90603833 C7.42118742,8.06105869 7.65554071,8.13856887 7.81177623,8.13856887 C8.04612952,8.13856887 8.20236504,8.06105869 8.35860057,7.90603833 C8.67107162,7.59599761 8.67107162,7.13093653 8.35860057,6.82089582 L6.32753875,4.72812096 C6.0150677,4.41808024 5.54636112,4.41808024 5.23389008,4.72812096 C4.92141903,5.03816168 4.92141903,5.50322276 5.23389008,5.81326348 L7.2649519,7.90603833 Z" id="Shape" fill-rule="nonzero"></path>
                </g>
            </g>
        </g>
    </g>
</svg>
